X: 38813
T: Suil Suil A Ghra
R: barndance
M: 4/4
K: Gmajor
|:g2 g2 f2 f2|efed B4|d2 B2 dege|dedB A2 BA|
GFEF GABd|efga b2 ba|gfed BABd|e4 e2 d2|
g2 g2 f2 f2|efed B4|c2 B2 g2 f2|e2 dB A2 BA|
GFEF GABd|efga b2 ba|g2 fe b2 ^d2|e4 e2 d2:|

